X: 12774
T: Father's
R: jig
M: 6/8
K: Adorian
E|:A2B c2d|e2f d2B|[M:9/8] A2d f2a g2f|[M:6/8] e3 e3|
A2B c2d|e2c d3|e2f e2d|c2A B2G|1 A3 A2E:|2 A3 A3|
|:ea2 a3|g2f e2f|[M:9/8] g3 g3 f2e|[M:6/8] d3 ^c2d|
ea2 a2f|g2f e2 d|c2A B2G|A3 A3:|

